assets/images/icon-car.svg

<svg xmlns="http://www.w3.org/2000/svg" width="33.5" height="21.97" viewBox="0 0 33.5 21.97"><path d="m29 16.3a1.79 1.79 0 0 1-1.77-1.8A1.7 1.7 0 0 1 29 12.77a1.68 1.68 0 0 1 1.7 1.73a1.77 1.77 0 0 1-1.7 1.8zM6.35 7.1l1.53-5h17.87l1.52 5zm-1.82 9.2a1.79 1.79 0 0 1-1.77-1.8a1.7 1.7 0 0 1 1.77-1.73a1.69 1.69 0 0 1 1.76 1.73a1.78 1.78 0 0 1-1.76 1.8zM30 9.19L27.21 0H6.29L3.47 9.19L0 13.07v6h1.41V22h4.17v-2.9h22.34v2.9h4.17v-2.9h1.41v-6z" fill-rule="evenodd"/></svg>

<svg xmlns="http://www.w3.org/2000/svg" width="33.5" height="21.97" viewBox="0 0 33.5 21.97"><path d="M29,16.3a1.79,1.79,0,0,1-1.77-1.8A1.7,1.7,0,0,1,29,12.77a1.68,1.68,0,0,1,1.7,1.73A1.77,1.77,0,0,1,29,16.3ZM6.35,7.1l1.53-5H25.75l1.52,5ZM4.53,16.3a1.79,1.79,0,0,1-1.77-1.8,1.7,1.7,0,0,1,1.77-1.73A1.69,1.69,0,0,1,6.29,14.5,1.78,1.78,0,0,1,4.53,16.3ZM30,9.19,27.21,0H6.29L3.47,9.19,0,13.07v6H1.41V22H5.58V19.1H27.92V22h4.17V19.1H33.5v-6Z" fill-rule="evenodd"/></svg>
